packages/katcn/src/icons/svg/reflect-solid.svg

<svg width="24" height="25" viewBox="0 0 24 25" fill="none" xmlns="http://www.w3.org/2000/svg">
<path d="M12 5.81201C11.4 5.81201 11 5.41201 11 4.81201V3.31201C11 2.71201 11.4 2.31201 12 2.31201C12.6 2.31201 13 2.71201 13 3.31201V4.81201C13 5.41201 12.6 5.81201 12 5.81201Z" fill="black"/>
<path d="M12 17.512C11.4 17.512 11 17.112 11 16.512V14.012C11 13.412 11.4 13.012 12 13.012C12.6 13.012 13 13.412 13 14.012V16.512C13 17.012 12.6 17.512 12 17.512ZM12 11.612C11.4 11.612 11 11.212 11 10.612V8.11201C11 7.51201 11.4 7.11201 12 7.11201C12.6 7.11201 13 7.51201 13 8.11201V10.612C13 11.212 12.6 11.612 12 11.612Z" fill="black"/>
<path d="M12 22.312C11.4 22.312 11 21.912 11 21.312V19.812C11 19.212 11.4 18.812 12 18.812C12.6 18.812 13 19.212 13 19.812V21.312C13 21.912 12.6 22.312 12 22.312Z" fill="black"/>
<path d="M3.8 18.212C3.6 18.212 3.3 18.212 3.1 18.112C2.4 17.812 2 17.212 2 16.412V8.21201C2 7.51201 2.4 6.81201 3.1 6.51201C3.8 6.21201 4.6 6.41201 5.1 6.91201L9.2 11.012C9.6 11.412 9.7 11.812 9.7 12.312C9.7 12.812 9.5 13.212 9.2 13.612L5.1 17.712C4.8 18.012 4.3 18.212 3.8 18.212Z" fill="black"/>
<path d="M20.2 18.212C19.7 18.212 19.3 18.012 18.9 17.712L14.8 13.612C14.1 12.912 14.1 11.712 14.8 11.012L18.9 6.91201C19.4 6.41201 20.2 6.21201 20.9 6.51201C21.6 6.81201 22 7.41201 22 8.21201V16.412C22 17.112 21.6 17.812 20.9 18.112C20.7 18.212 20.4 18.212 20.2 18.212Z" fill="black"/>
</svg>

<svg xmlns="http://www.w3.org/2000/svg" fill="none" viewBox="0 0 24 25"><path fill="#000" d="M12 5.812c-.6 0-1-.4-1-1v-1.5c0-.6.4-1 1-1s1 .4 1 1v1.5c0 .6-.4 1-1 1m0 11.7c-.6 0-1-.4-1-1v-2.5c0-.6.4-1 1-1s1 .4 1 1v2.5c0 .5-.4 1-1 1m0-5.9c-.6 0-1-.4-1-1v-2.5c0-.6.4-1 1-1s1 .4 1 1v2.5c0 .6-.4 1-1 1m0 10.7c-.6 0-1-.4-1-1v-1.5c0-.6.4-1 1-1s1 .4 1 1v1.5c0 .6-.4 1-1 1m-8.2-4.1c-.2 0-.5 0-.7-.1-.7-.3-1.1-.9-1.1-1.7v-8.2c0-.7.4-1.4 1.1-1.7s1.5-.1 2 .4l4.1 4.1c.4.4.5.8.5 1.3s-.2.9-.5 1.3l-4.1 4.1c-.3.3-.8.5-1.3.5m16.4 0c-.5 0-.9-.2-1.3-.5l-4.1-4.1c-.7-.7-.7-1.9 0-2.6l4.1-4.1c.5-.5 1.3-.7 2-.4s1.1.9 1.1 1.7v8.2c0 .7-.4 1.4-1.1 1.7-.2.1-.5.1-.7.1"/></svg>
